X:1
T:Balmoral Hornpipe
T:Balmoral Hornpipe
T:Alexander Walker
C:Alexander Walker
L:1/8
M:2/2
K:Bb
V:1 treble 
V:1
O fe | dBFB d2 cB | cdef g2 fe | dfbg fdcB | d2 c2 c2 fe | dBFB d2 cB | cdef g2 fe | dfbg fdcB | %8
O c2 B2 B2 |: a | bfgb fdcB | cdef g2 fe | dfbg fdcB | d2 c2 c2 |1 ga | bBaB gBfB | efga b2 ag | %17
 fgfe dBcA | B2 B2 B2 z :|2 dc | BAGF EDCB, | EFGA B2 cd | efga bfge | d2 B2 B2 || %24

